X: 38575
T: Stolen Purse, The
R: jig
M: 6/8
K: Adorian
edB AGA|AGF G2B|dBA ABd|e2g edB|
~A3 AGA|AGF G2A|GED G2A|Bdd edB|
~A3 AGA|AGF G2B|dBA ABd|e2g edB|
~A3 AGA|BGF G2A|GED G2A|Bdd edB||
def g2b|agf g2e|def g2a|bge edB|
def g2b|agf g2a|bgg agf|e2d efg:|

